X:8733
T:Konikaakari Masurkka
M:3/4
L:1/8
K:G
DG GB AF|GB, DB, DG|FA, CB, CE|DG, B,B, B,D|\
DG GB AF|GB, DB, DG|FA, CB, CA, |G,2G4:|
B2 GG GG|FG A2 DD|cc AA FF|GA B2 GG|\
B2 GG GG|FG A2 DD|EF FE FA|G2G4:|
